X:1
T:Christian, Let Your Light Shine
T:Christian, Let Your Light Shine
T:Emmet Griffifin Coleman
T:Emmet Griffifin Coleman, 1898
T:Public Domain Courtesy of the Cyber Hymnal™
C:Emmet Griffifin Coleman
Z:Public Domain
Z:Courtesy of the Cyber Hymnal™
%%score ( 1 2 ) ( 3 4 )
L:1/8
Q:1/4=103
M:4/4
K:G
V:1 treble 
V:2 treble 
V:3 bass 
V:4 bass 
V:1
 [DG]2 [EG]2 [DG]2 [B,D]2 | [DG]2 [DA]2 B4 | [Ge]2 [Gd]2 [Fc]2 [GB]2 | [DA]2 [EG]2 [FA]4 | %4
w: 1.~Chris- tian, let your|burn- ing light|Shine on all with|lus- ter bright;|
w: 2.~As you jour- ney|here be- low,|Shed a ray wher-|e’er you go;|
w: 3.~That your light may|guide you thro’,|Bright- ly let it|shine a- new;|
 [DG]2 [EG]2 [DG]2 [B,D]2 | [DG]2 [DA]2 B4 | [Ge]2 [Gd]2 [Ec]2 [EA]2 | [DG]2 [DF]2 [DG]4 || %8
w: Let your words and|deeds be pure,|All for Christ you|must en- dure.|
w: Find in this your|pure de- light,|Let your light shine|clear and bright.|
w: Keep up cour- age—|ne- ver fail,|Till you’re safe with-|in the veil.|
"^Refrain" [Gd]>[Gd] [Fd]>[Fd] [Gd]2 [GB]2 | [Ge]>[Gd] [Fc]>[GB] [FA]4 | %10
w: ||
w: Chris- tian, let your light shine,|All a- long your way;|
w: ||
 [Fc]>[Fc] [Fc]>[Fc] [Fc]2 [FA]2 | [Bd]>[Ac] [GB]>[FA] [GB]4 | [DG]2 [EG]2 [DG]2 [B,D]2 | %13
w: |||
w: You may guide a wan- derer|To e- ter- nal day;|You may save from|
w: |||
 [DG]2 [DA]2 B4 | [Ge]2 [Gd]2 [Ec]2 [EA]2 | [DG]2 [DF]2 [DG]4 |] %16
w: |||
w: end- less night,|If you let your|lamp burn bright.|
w: |||
V:2
 x8 | x4 (D2 G2) | x8 | x8 | x8 | x4 (D2 G2) | x8 | x8 || x8 | x8 | x8 | x8 | x8 | x4 (D2 G2) | %14
 x8 | x8 |] %16
V:3
 [G,B,]2 [G,C]2 [G,B,]2 [G,,G,]2 | [B,,G,]2 [D,F,]2 (G,2 D2) | C2 [B,D]2 [A,D]2 [G,D]2 | %3
 [F,D]2 [E,^C]2 (D2 =C2) | [G,B,]2 [G,C]2 [G,B,]2 [G,,G,]2 | [B,,G,]2 [D,F,]2 (G,2 D2) | %6
 [G,C]2 [G,B,]2 [C,C]2 [C,C]2 | [D,B,]2 [D,A,]2 [G,,G,B,]4 || %8
 [G,B,]>[F,A,] [D,A,]>[D,A,] [G,B,]2 [G,D]2 | C>[B,D] [A,D]>[G,D] [D,D]4 | %10
 [D,A,]>[D,A,] [D,A,]>[D,A,] [D,A,]2 [D,D]2 | [D,D]>[D,D] [D,D]>[D,D] [G,D]4 | %12
 [G,B,]2 [G,C]2 [G,B,]2 [G,,G,]2 | [B,,G,]2 [D,F,]2 (G,2 D2) | [G,C]2 [G,B,]2 [C,C]2 [C,C]2 | %15
 [D,B,]2 [D,A,]2 [G,,G,B,]4 |] %16
V:4
 x8 | x4 G,4 | C2 x6 | x4 D,4 | x8 | x4 G,4 | x8 | x8 || x8 | C3/2 x13/2 | x8 | x8 | x8 | x4 G,4 | %14
 x8 | x8 |] %16

